package/svg/logo_controlhome_with_text.svg

<svg width="56" height="56" viewBox="0 0 56 56" fill="none" xmlns="http://www.w3.org/2000/svg">
<path d="M7.8032 39.3144C7.6632 40.0014 7.1762 40.7574 5.9232 40.7574C4.6342 40.7574 3.9382 39.8644 3.9382 38.6274C3.9382 37.4244 4.7042 36.4294 5.9582 36.4294C7.3502 36.4294 7.7692 37.4254 7.7692 37.9064H6.6532C6.5842 37.5624 6.4092 37.3214 5.9572 37.3214C5.4352 37.3214 5.1212 37.7684 5.1212 38.5934C5.1212 39.4854 5.4352 39.8644 5.9572 39.8644C6.3742 39.8644 6.5842 39.6234 6.6532 39.3144H7.8032V39.3144ZM12.4692 38.5924C12.4692 39.8304 11.7032 40.7574 10.3802 40.7574C9.0902 40.7574 8.3252 39.8304 8.3252 38.6274C8.3252 37.3564 9.0912 36.4634 10.4492 36.4634C11.6682 36.4634 12.4692 37.2874 12.4692 38.5924V38.5924ZM9.5092 38.5924C9.5092 39.3824 9.8572 39.8644 10.4152 39.8644C10.9722 39.8644 11.2852 39.3824 11.2852 38.5924C11.2852 37.7344 10.9722 37.3214 10.3802 37.3214C9.8572 37.3564 9.5092 37.7344 9.5092 38.5934V38.5924ZM13.2702 37.5624V36.5314H14.3842C14.4192 36.6344 14.4192 36.9434 14.4192 37.0474C14.5582 36.8064 14.9072 36.4294 15.6382 36.4294C16.4732 36.4294 17.0312 36.9784 17.0312 38.0094V40.6194H15.8812V38.1124C15.8812 37.6304 15.7072 37.3214 15.2202 37.3214C14.7332 37.3214 14.4542 37.5964 14.4542 38.3184V40.6194H13.3052V37.5624H13.2702ZM17.5532 36.5314H18.1802V35.3984H19.3292V36.5314H20.1302V37.3904H19.3292V39.4174C19.3292 39.7264 19.4332 39.8644 19.7832 39.8644H20.0262V40.6544C19.7832 40.7224 19.4692 40.7224 19.2592 40.7224C18.4592 40.7224 18.1802 40.3104 18.1802 39.5884V37.4254H17.5532V36.5314V36.5314ZM20.8272 37.6654V36.5314H21.9752C22.0102 36.6344 22.0102 37.0474 22.0102 37.2524C22.1852 36.7724 22.6372 36.4294 23.3332 36.4294V37.5284C22.4982 37.4934 22.0102 37.7344 22.0102 38.8684V40.6544H20.8622V37.6654H20.8272ZM27.8262 38.5924C27.8262 39.8304 27.0592 40.7574 25.7372 40.7574C24.4482 40.7574 23.6822 39.8304 23.6822 38.6274C23.6822 37.3564 24.4482 36.4634 25.8062 36.4634C27.0252 36.4634 27.8262 37.2874 27.8262 38.5924V38.5924ZM24.8662 38.5924C24.8662 39.3824 25.2152 39.8644 25.7712 39.8644C26.3292 39.8644 26.6422 39.3824 26.6422 38.5924C26.6422 37.7344 26.3292 37.3214 25.7372 37.3214C25.2142 37.3564 24.8662 37.7344 24.8662 38.5934V38.5924ZM28.6272 40.6544V34.8484H29.7752V40.6544H28.6272Z" fill="black"/>
<path d="M30.9248 35.1492H32.1788V37.3132H34.3728V35.1832H35.5908V40.6812H34.3728V38.3102H32.1428V40.6812H30.9258V35.1492H30.9248ZM40.5708 38.5842C40.5708 39.8222 39.8058 40.7492 38.4818 40.7492C37.1928 40.7492 36.4268 39.8222 36.4268 38.6192C36.4268 37.3482 37.1928 36.4552 38.5508 36.4552C39.7688 36.4552 40.5708 37.2792 40.5708 38.5842V38.5842ZM37.6108 38.5842C37.6108 39.3742 37.9598 39.8562 38.5158 39.8562C39.0738 39.8562 39.3868 39.3742 39.3868 38.5842C39.3868 37.7262 39.0738 37.3132 38.4818 37.3132C37.9588 37.3482 37.6108 37.7262 37.6108 38.5852V38.5842ZM41.3718 37.5882V36.5232H42.4858C42.5218 36.6262 42.5218 36.8672 42.5218 37.0042C42.7298 36.6952 43.0778 36.4212 43.6698 36.4212C44.2618 36.4212 44.6108 36.7302 44.7498 37.0392C44.9928 36.6952 45.3408 36.4212 46.0378 36.4212C46.7688 36.4212 47.3608 36.8672 47.3608 37.9312V40.6452H46.2118V38.0702C46.2118 37.6912 46.0728 37.3482 45.5848 37.3482C45.0978 37.3482 44.8898 37.6572 44.8898 38.2752V40.6462H43.7748V38.1372C43.7748 37.7262 43.6698 37.3822 43.1828 37.3822C42.6948 37.3822 42.4858 37.6572 42.4858 38.3782V40.6812H41.3378L41.3718 37.5882V37.5882ZM49.3118 38.8252C49.3118 39.3402 49.5548 39.8562 50.1478 39.8562C50.6348 39.8562 50.7738 39.6852 50.8788 39.4092H52.0278C51.8878 39.9242 51.4358 40.7492 50.1118 40.7492C48.7538 40.7492 48.1278 39.7532 48.1278 38.6532C48.1278 37.3822 48.7888 36.4212 50.1478 36.4212C51.5748 36.4212 52.0618 37.4522 52.0618 38.4812C52.0618 38.6192 52.0618 38.7222 52.0278 38.8252H49.3118V38.8252ZM50.9128 38.1382C50.9128 37.6572 50.7038 37.2442 50.1478 37.2442C49.5898 37.2442 49.3808 37.6222 49.3118 38.1382H50.9128Z" fill="black"/>
<path d="M20.1308 19.1037V30.6897L24.0478 28.7667V17.1707L20.1308 19.1037" fill="black"/>
<path d="M28.0008 15.2429V19.0989L20.1308 22.9559V19.0739L28.0008 15.2429" fill="black"/>
<path d="M28.0008 22.9539L20.1308 26.8349V30.6829L28.0008 26.8539V22.9549" fill="black"/>
<path d="M28.0007 19.0984V22.9554L35.8007 26.8324V22.9724L28.0007 19.0994" fill="black"/>
<path d="M35.8007 26.8179V30.7089L33.1887 29.4169V25.5239L35.8007 26.8179ZM30.5777 24.2309V28.1259L28.0007 26.8529V22.9539L30.5777 24.2309Z" fill="black"/>
<path d="M33.1887 17.7879L35.8007 19.0789V22.9719L33.1887 21.6759V17.7879ZM30.5777 16.4969V20.3789L28.0007 19.0989V15.2429L30.5777 16.4969" fill="black"/>
</svg>

<svg width="100%" height="100%" viewBox="0 0 56 56" version="1.1" xmlns="http://www.w3.org/2000/svg"><g><path d="M7.803,39.313c-0.14,0.687 -0.627,1.443 -1.88,1.443c-1.289,-0 -1.985,-0.893 -1.985,-2.13c-0,-1.203 0.766,-2.198 2.02,-2.198c1.392,-0 1.811,0.996 1.811,1.477l-1.116,-0c-0.069,-0.344 -0.244,-0.585 -0.696,-0.585c-0.522,0 -0.836,0.447 -0.836,1.272c-0,0.892 0.314,1.271 0.836,1.271c0.417,0 0.627,-0.241 0.696,-0.55l1.15,0m4.666,-0.722c-0,1.238 -0.766,2.165 -2.089,2.165c-1.29,0 -2.055,-0.927 -2.055,-2.13c0,-1.271 0.766,-2.164 2.124,-2.164c1.219,-0 2.02,0.824 2.02,2.129Zm-2.96,0c-0,0.79 0.348,1.272 0.906,1.272c0.557,-0 0.87,-0.482 0.87,-1.272c-0,-0.858 -0.313,-1.271 -0.905,-1.271c-0.523,0.035 -0.871,0.413 -0.871,1.272m3.761,-1.031l-0,-1.031l1.114,0c0.035,0.103 0.035,0.412 0.035,0.516c0.139,-0.241 0.488,-0.618 1.219,-0.618c0.835,-0 1.393,0.549 1.393,1.58l0,2.61l-1.15,0l0,-2.507c0,-0.482 -0.174,-0.791 -0.661,-0.791c-0.487,0 -0.766,0.275 -0.766,0.997l-0,2.301l-1.149,0l-0,-3.057l-0.035,0m4.283,-1.031l0.627,0l0,-1.133l1.149,-0l0,1.133l0.801,0l0,0.859l-0.801,-0l0,2.027c0,0.309 0.104,0.447 0.454,0.447l0.243,-0l-0,0.79c-0.243,0.068 -0.557,0.068 -0.767,0.068c-0.8,0 -1.079,-0.412 -1.079,-1.134l0,-2.163l-0.627,-0l-0,-0.894m3.274,1.134l0,-1.134l1.148,0c0.035,0.103 0.035,0.516 0.035,0.721c0.175,-0.48 0.627,-0.823 1.323,-0.823l0,1.099c-0.835,-0.035 -1.323,0.206 -1.323,1.34l0,1.786l-1.148,-0l-0,-2.989l-0.035,0m6.999,0.927c-0,1.238 -0.767,2.165 -2.089,2.165c-1.289,0 -2.055,-0.927 -2.055,-2.13c0,-1.271 0.766,-2.164 2.124,-2.164c1.219,-0 2.02,0.824 2.02,2.129Zm-2.96,0c0,0.79 0.349,1.272 0.905,1.272c0.558,-0 0.871,-0.482 0.871,-1.272c-0,-0.858 -0.313,-1.271 -0.905,-1.271c-0.523,0.035 -0.871,0.413 -0.871,1.272m3.761,2.061l-0,-5.806l1.148,0l0,5.806l-1.148,-0" style="fill-rule:nonzero;"/><path d="M30.925,35.156l1.254,0l-0,2.164l2.194,0l0,-2.13l1.218,0l0,5.498l-1.218,-0l0,-2.371l-2.23,0l-0,2.371l-1.217,-0l-0,-5.532m9.645,3.435c0,1.238 -0.765,2.165 -2.089,2.165c-1.289,0 -2.055,-0.927 -2.055,-2.13c0,-1.271 0.766,-2.164 2.124,-2.164c1.218,-0 2.02,0.824 2.02,2.129l0,0Zm-2.96,0c0,0.79 0.349,1.272 0.905,1.272c0.558,-0 0.871,-0.482 0.871,-1.272c-0,-0.858 -0.313,-1.271 -0.905,-1.271c-0.523,0.035 -0.871,0.413 -0.871,1.272m3.761,-0.997l-0,-1.065l1.114,0c0.036,0.103 0.036,0.344 0.036,0.481c0.208,-0.309 0.556,-0.583 1.148,-0.583c0.592,-0 0.941,0.309 1.08,0.618c0.243,-0.344 0.591,-0.618 1.288,-0.618c0.731,-0 1.323,0.446 1.323,1.51l0,2.714l-1.149,0l0,-2.575c0,-0.379 -0.139,-0.722 -0.627,-0.722c-0.487,0 -0.695,0.309 -0.695,0.927l-0,2.371l-1.115,-0l-0,-2.509c-0,-0.411 -0.105,-0.755 -0.592,-0.755c-0.488,-0 -0.697,0.275 -0.697,0.996l0,2.303l-1.148,-0l0.034,-3.093m7.94,1.237c-0,0.515 0.243,1.031 0.836,1.031c0.487,-0 0.626,-0.171 0.731,-0.447l1.149,-0c-0.14,0.515 -0.592,1.34 -1.916,1.34c-1.358,-0 -1.984,-0.996 -1.984,-2.096c-0,-1.271 0.661,-2.232 2.02,-2.232c1.427,-0 1.914,1.031 1.914,2.06c-0,0.138 -0,0.241 -0.034,0.344l-2.716,-0Zm1.601,-0.687c0,-0.481 -0.209,-0.894 -0.765,-0.894c-0.558,0 -0.767,0.378 -0.836,0.894l1.601,-0" style="fill-rule:nonzero;"/><path d="M20.13,19.104l0,11.586l3.917,-1.923l0,-11.596l-3.917,1.933"/><path d="M28,15.248l0,3.856l-7.87,3.857l0,-3.882l7.87,-3.831"/><path d="M28,22.961l-7.87,3.881l0,3.848l7.87,-3.829l0,-3.899"/><path d="M28,19.104l0,3.857l7.8,3.877l-0,-3.86l-7.8,-3.873"/><path d="M35.8,26.825l-0,3.891l-2.612,-1.292l0,-3.893l2.612,1.294Zm-5.223,-2.587l0,3.895l-2.577,-1.273l0,-3.899l2.577,1.277"/><path d="M33.188,17.793l2.612,1.291l-0,3.893l-2.612,-1.296l0,-3.888Zm-2.611,-1.291l0,3.882l-2.577,-1.28l0,-3.856l2.577,1.254"/></g></svg>
